X: 205
T:Borey,A. HA.204
T:Bourree,aka. HA.204
M:C
L:1/8
Q:1/4=200
S:Henry Atkinson's original MS,Hartburn,N'umberland,1694.
R:Bourre
O:England
A:Hartburn,Northumberland
H:1/8
Z:vmp.Neil Brookes, Jan.2004
K:Bb
d2|G2A2 BABc|A2G2g2d2|e2B2"cr"c3(B/2c/2)|d4||!
fg|f2B2e2 dc|d2G4 cB|A2B2c2F2|"minim"B6 ba|!
g2f2e2a2|^f2d4 g=e|f2g2"NB"g3f|g4|]
W:NB=dotted Minim in MS|
